X:225
T: Cruacha Gorma (Na)
S: "Treoir"
Z: B.Black
M: 4/4
L: 1/8
R: hornpipe
K: G
(3DEF | G2 (3BAG FA (3DEF | GB (3def gedB |
AE (3E^DE cABG | (3ABA (3GFE D2 (3DEF |
G2 (3BAG FA (3DEF | GB (3def gedB |
(3A^GA fe cFAF | (3ABA FE G2 ||
Bd | e2 (3fed edBd | e2 (3fed B2 (3AB^c |
d2 (3edc dAFG | (3AGF GE D2 (3DEF |
G2 (3BAG FA (3DEF | GB (3def gedB |
(3A^GA fe cFAF | (3ABA FE G2 ||
